!!!!SEGMENT: Con2007-Egredere_ab_occidente--Liber_secundus_quatuor_et_viginiti_musicales.krn
!!!id: Con2007
!!!AGN: Motet
!!!voices: 4
!!!COM: Jean Conseil
!!!OTL: Egredere ab occidente (Liber secundus quatuor et viginiti musicales)
**kern	**kern	**kern	**kern
*part4	*part3	*part2	*part1
*staff4	*staff3	*staff2	*staff1
*I"Bassus	*I"Tenor	*I"Altus	*I"Superius
*I'B	*I'T	*I'A	*I'S
*clefF4	*clefGv2	*clefGv2	*clefG2
*k[b-]	*k[b-]	*k[b-]	*k[b-]
*F:	*F:	*F:	*F:
*M2/1	*M2/1	*M2/1	*M2/1
*met(C|)	*met(C|)	*met(C|)	*met(C|)
!!Section: Prima pars: Egredere ab Occidente
!!!OMD: Prima pars: Egredere ab Occidente
=1	=1	=1	=1
0r	0r	1A	0r
.	.	[1c	.
=2	=2	=2	=2
0r	0r	2c]	0r
.	.	2c	.
.	.	1c	.
=3	=3	=3	=3
0r	0r	1d	1f
.	.	4c	[1cc
.	.	4B-y	.
.	.	4A	.
.	.	4G	.
=4	=4	=4	=4
0r	0r	2F	2cc]
.	.	2.f	2cc
.	.	.	1cc
.	.	4e	.
.	.	8fL	.
.	.	8e	.
.	.	8d	.
.	.	8cJ	.
=5	=5	=5	=5
0r	0r	4B-y	1dd
.	.	4c	.
.	.	4d	.
.	.	4e	.
.	.	2.f	4cc
.	.	.	4b-y
.	.	.	4a
.	.	4e	4g
=6	=6	=6	=6
1r	0r	2d	2f
.	.	1c	1a
1FF	.	.	.
.	.	4B-y	4g
.	.	4A	4f
=7	=7	=7	=7
1.C	0r	4G	4e
.	.	4F	4d
.	.	4E	2.g
.	.	4D	.
.	.	2E	.
.	.	.	4f
2C	.	2F	[2f
=8	=8	=8	=8
1C	1r	2G	2f]
.	.	1A	2e
1D	1F	.	1f
.	.	4G	.
.	.	4F	.
=9	=9	=9	=9
4C	1.c	1E	0r
4BB-y	.	.	.
4AA	.	.	.
4GG	.	.	.
2FF	.	1r	.
[2F	2c	.	.
=10	=10	=10	=10
4F]	1c	0r	0r
4E	.	.	.
8FL	.	.	.
8E	.	.	.
8D	.	.	.
8CJ	.	.	.
4BB-y	1d	.	.
4C	.	.	.
4D	.	.	.
4E	.	.	.
=11	=11	=11	=11
2.F	4c	0r	0r
.	4B-y	.	.
.	4A	.	.
4E	4G	.	.
2D	2F	.	.
2C	[2A	.	.
=12	=12	=12	=12
1D	2A]	2.F	0r
.	4G	.	.
.	4F	4F	.
1C	2E	2G	.
.	[2G	2E	.
=13	=13	=13	=13
2BB-y	4G]	1F	1r
.	4F	.	.
2AA	1F	.	.
1GG	.	1G	2.g
.	2E	.	.
.	.	.	4g
=14	=14	=14	=14
1FF	1F	2.c	2a
.	.	.	1cc
.	.	4c	.
1r	2.G	2d	.
.	.	2B-y	2b-y
.	4G	.	.
=15	=15	=15	=15
1r	2A	2c	2a
.	1c	2e	4g
.	.	.	4f
2.GG	.	1d	2g
.	2B-y	.	2g
4GG	.	.	.
=16	=16	=16	=16
2AA	1A	1c	1e
1C	.	.	.
.	2.G	1r	1r
2BB-y	.	.	.
.	4G	.	.
=17	=17	=17	=17
2AA	2A	1r	0r
2FF	1c	.	.
2GG	.	2.G	.
2GG	2B-y	.	.
.	.	4G	.
=18	=18	=18	=18
2FF	2A	2A	1r
2.F	2F	1c	.
.	2G	.	2.g
4E	.	.	.
2E	2G	2B-y	.
.	.	.	4g
=19	=19	=19	=19
1F	2F	2A	1a
.	1f	2F	.
2.C	.	2G	1cc
.	2e	2G	.
4C	.	.	.
=20	=20	=20	=20
2D	2d	1F	2b-y
1F	2.c	.	2a
.	.	2.c	1g
.	4B-y	.	.
2E	4A	.	.
.	4G	4c	.
=21	=21	=21	=21
2D	2A	2d	2.f
2BB-y	2B-y	1f	.
.	.	.	4g
2C	4A	.	2a
.	4B-y	.	.
2C	4c	2e	[2g
.	4A	.	.
=22	=22	=22	=22
2BB-y	4B-y	2d	4g]
.	4A	.	4f
2D	4G	2B-y	1f
.	4F	.	.
1C	1G	2c	.
.	.	2c	2e
=23	=23	=23	=23
0FF	0F	0A	1f
.	.	.	[1cc
=24	=24	=24	=24
0r	0r	1.f	2cc]
.	.	.	2b-y
.	.	.	2a
.	.	2e	2g
=25	=25	=25	=25
0r	0r	2d	2f
.	.	2c	2e
.	.	2B-y	4f
.	.	.	4g
.	.	2A	[2a
=26	=26	=26	=26
0r	1r	1B-y	2a]
.	.	.	2g
.	[1c	[1A	[1a
=27	=27	=27	=27
1.F	2c]	1A]	1a]
.	2B-y	.	.
.	2A	1r	1r
2E	2G	.	.
=28	=28	=28	=28
2D	2F	1A	0r
2C	2E	.	.
2BB-y	4F	2B-y	.
.	4G	.	.
2AA	[2A	2c	.
=29	=29	=29	=29
1BB-y	2A]	1.d	1r
.	2G	.	.
1AA	1A	.	2r
.	.	2c	2e
=30	=30	=30	=30
0r	0r	2.B-y	2f
.	.	.	2g
.	.	8AL	.
.	.	8GJ	.
.	.	4F	[1a
.	.	4G	.
.	.	4A	.
.	.	4B-y	.
=31	=31	=31	=31
0r	0r	4c	2a]
.	.	4d	.
.	.	4e	2g
.	.	4c	.
.	.	4d	4f
.	.	4e	4g
.	.	[2f	4a
.	.	.	4b-y
=32	=32	=32	=32
0r	2r	4f]	4a
.	.	4e	4g
.	2E	2c	1cc
.	2F	1d	.
.	2G	.	2bnXi
=33	=33	=33	=33
2r	1.A	1c	1cc
2AA	.	.	.
2BB-y	.	1r	1r
2C	2G	.	.
=34	=34	=34	=34
1.D	2.F	2r	0r
.	.	2A	.
.	4E	.	.
.	4F	2B-y	.
.	4G	.	.
2C	[2A	2c	.
=35	=35	=35	=35
2.BB-y	2A]	1.d	0r
.	2G	.	.
8AAL	.	.	.
8GGJ	.	.	.
2FF	2.A	.	.
[2F	.	2c	.
.	4F	.	.
=36	=36	=36	=36
2F]	1G	2.B-y	0r
2E	.	.	.
.	.	8AL	.
.	.	8GJ	.
2.A	[1D	1F	.
4G	.	.	.
=37	=37	=37	=37
4F	1D]	2r	0r
4E	.	.	.
1D	.	2A	.
.	2r	2B-y	.
2C	2E	2c	.
=38	=38	=38	=38
1BB-y	2F	1.d	0r
.	2G	.	.
1AA	[1A	.	.
.	.	2c	.
=39	=39	=39	=39
2r	2A]	2B-y	2r
2C	2G	2.c	2e
2D	2F	.	2f
.	.	4B-y	.
2E	[2c	8cL	2g
.	.	8B-y	.
.	.	8A	.
.	.	8GJ	.
=40	=40	=40	=40
1.F	4c]	2F	1.a
.	4B-y	.	.
.	4A	2c	.
.	4G	.	.
.	2F	2d	.
2E	2G	2e	2g
=41	=41	=41	=41
1D	2.A	1.f	2f
.	.	.	1a
.	4B-y	.	.
1C	2c	.	.
.	2G	2e	[2g
=42	=42	=42	=42
1BB-y	2.B-y	1d	2g]
.	.	.	1f
.	4A	.	.
1C	1G	1c	.
.	.	.	2e
=43	=43	=43	=43
1FF	1F	1A	1f
1r	1r	1r	1r
=44	=44	=44	=44
0F	0c	0f	0a
=45	=45	=45	=45
1BB-y	1d	1f	1b-y
[1F	[1c	[1f	[1a
=46	=46	=46	=46
2F]	2c]	2f]	2a]
2F	2c	2f	2a
1C	1c	1e	4g
.	.	.	4f
.	.	.	4g
.	.	.	4a
=47	=47	=47	=47
0D	0F	2d	2b-y
.	.	1c	1a
.	.	2B-y	4g
.	.	.	4f
=48	=48	=48	=48
1.C	2.G	2c	1.e
.	.	1c	.
.	4F	.	.
.	4E	.	.
.	4D	.	.
2C	[2C	[2c	2e
=49	=49	=49	=49
2AA	2C]	2c]	1f
2BB-y	1F	1d	.
1GG	.	.	1g
.	2E	4c	.
.	.	4B-y	.
=50	=50	=50	=50
0FF	1F	2A	0a
.	.	1c	.
.	[1c	.	.
.	.	2B-y	.
=51	=51	=51	=51
1r	2c]	2A	1.cc
.	2B-y	2G	.
[1F	2A	1F	.
.	2G	.	2b-y
=52	=52	=52	=52
2F]	1F	1c	2a
2E	.	.	2g
2D	1A	[1d	1f
2C	.	.	.
=53	=53	=53	=53
1BB-y	1B-y	1d]	2f
.	.	.	2.g
1D	2A	2d	.
.	.	.	4f
.	4G	2B-y	[2f
.	4F	.	.
=54	=54	=54	=54
1C	1G	1c	2f]
.	.	.	2e
[1FF	[1F	[1A	1f
=55	=55	=55	=55
1FF]	1F]	1A]	2r
.	.	.	1f
1r	1r	2r	.
.	.	2B-y	2g
=56	=56	=56	=56
0r	0r	2c	1a
.	.	2.d	.
.	.	.	4f
.	.	4c	4e
.	.	4d	4f
.	.	4e	4g
=57	=57	=57	=57
0r	2r	2f	4a
.	.	.	4b-y
.	1F	2c	1cc
.	.	1d	.
.	2G	.	2bnXi
=58	=58	=58	=58
1r	2A	2.c	0cc
.	4F	.	.
.	4G	4B-y	.
2r	4A	4A	.
.	4B-y	4G	.
[2FF	[2c	[2A	.
=59	=59	=59	=59
2FF]	2c]	2A]	0r
2GG	2B-y	4G	.
.	.	4F	.
2AA	2.c	2E	.
4FF	.	[2F	.
4GG	4B-y	.	.
=60	=60	=60	=60
4AA	2A	2F]	0r
4BB-y	.	.	.
1C	2G	2E	.
.	2.F	1D	.
2BB-y	.	.	.
.	4G	.	.
=61	=61	=61	=61
1C	2A	0r	0r
.	2.G	.	.
2BB-y	.	.	.
.	4F	.	.
2AA	[2F	.	.
=62	=62	=62	=62
1GG	2F]	0r	2r
.	2E	.	1b-y
1FF	2D	.	.
.	[2c	.	2a
=63	=63	=63	=63
0r	2c]	2r	2g
.	2B-y	1f	1dd
.	1A	.	.
.	.	2e	[2cc
=64	=64	=64	=64
1r	2r	1d	2cc]
.	1B-y	.	2b-y
2r	.	1r	1cc
[2F	2A	.	.
=65	=65	=65	=65
2F]	1G	0r	0r
2E	.	.	.
1D	2.F	.	.
.	4G	.	.
=66	=66	=66	=66
2.C	4A	1r	0r
.	4B-y	.	.
.	2c	.	.
4D	.	.	.
4E	4G	2r	.
4F	4A	.	.
[2G	4B-y	[2B-y	.
.	4c	.	.
=67	=67	=67	=67
2G]	4d	2B-]	0r
.	4e	.	.
1F	2.d	2A	.
.	.	1G	.
.	4c	.	.
2E	[2c	.	.
=68	=68	=68	=68
1D	2c]	2.F	2r
.	2BnXi	.	1f
.	.	4G	.
1C	2c	4A	.
.	.	4B-y	.
.	[2G	[2c	2e
=69	=69	=69	=69
1r	4G]	2c]	1d
.	4A	.	.
.	4B-y	2B-y	.
.	4G	.	.
2r	4A	1A	2.c
.	4B-y	.	.
[2C	[2c	.	.
.	.	.	4d
=70	=70	=70	=70
4C]	4c]	2G	4e
4D	4B-y	.	4f
2E	4A	1c	1g
.	4G	.	.
1F	1A	.	.
.	.	2c	2f
=71	=71	=71	=71
4C	2.G	1c	1e
4D	.	.	.
4E	.	.	.
4F	4A	.	.
2G	4B-y	1B-y	4d
.	4c	.	4e
4D	2d	.	4f
4E	.	.	4g
=72	=72	=72	=72
4F	1c	2.A	4a
4G	.	.	4b-y
1A	.	.	1cc
.	.	4B-y	.
.	2F	2c	.
4G	[2c	[2f	4b-y
4F	.	.	4a
=73	=73	=73	=73
1G	2c]	2f]	1b-y
.	2B-y	2e	.
1F	1c	1f	1a
=74	=74	=74	=74
1r	1r	1r	1r
[1F	1c	[1f	[1a
=75	=75	=75	=75
2F]	2c	2f]	2a]
2F	1c	2f	2a
[1G	.	[1d	[1b-y
.	4B-y	.	.
.	4A	.	.
=76	=76	=76	=76
1G]	1B-y	1d]	1b-]
[1C	[1c	[1e	[1g
=77	=77	=77	=77
1C]	1c]	1e]	1g]
[1F	[1c	1f	[1a
=78	=78	=78	=78
1F]	2c]	1.f	1a]
.	2.d	.	.
[1G	.	.	[1b-y
.	4c	.	.
.	4B-y	4e	.
.	4A	4d	.
=79	=79	=79	=79
1G]	1B-y	1e	1b-]
[1F	[1c	[1f	[1a
=80	=80	=80	=80
2F]	2c]	2f]	2a]
2C	2c	2e	2g
1D	1A	1d	[1f
=81	=81	=81	=81
1BB-y	1B-y	1d	2f]
.	.	.	2.g
[1C	[1G	[1c	.
.	.	.	4f
.	.	.	4e
.	.	.	4d
=82	=82	=82	=82
1C]	1G]	1c]	1e
[1FF	[1F	[1A	[1f
=83	=83	=83	=83
0FF]	0F]	0A]	0f]
=84||	=84||	=84||	=84||
*M2/1	*M2/1	*M2/1	*M2/1
*met(C|)	*met(C|)	*met(C|)	*met(C|)
!!Section: Secunda pars: Dic matri
!!!OMD: Secunda pars: Dic matri
0r	0r	1r	1f
.	.	1F	1a
=85	=85	=85	=85
1r	1F	1A	[0cc
1FF	1A	2c	.
.	.	[2C	.
=86	=86	=86	=86
1AA	2c	2C]	0cc]
.	2C	1E	.
1C	1E	.	.
.	.	[2G	.
=87	=87	=87	=87
2r	1G	4G]	0r
.	.	4F	.
2GG	.	2E	.
1BB-y	2r	4D	.
.	.	4E	.
.	2D	4F	.
.	.	4G	.
=88	=88	=88	=88
1AA	1F	4A	0r
.	.	4B-y	.
.	.	4c	.
.	.	4A	.
2.GG	1E	2.B-y	.
4AA	.	4A	.
=89	=89	=89	=89
4BB-y	4D	1F	0r
4C	4E	.	.
1D	4F	.	.
.	4G	.	.
.	4A	2r	.
.	4B-y	.	.
2C	[2c	2G	.
=90	=90	=90	=90
2.F	4c]	2A	1f
.	4B-y	.	.
.	4A	1F	.
4E	4G	.	.
1D	2F	.	1a
.	2F	[2f	.
=91	=91	=91	=91
1C	1G	2f]	0cc
.	.	2e	.
1FF	2.F	1f	.
.	4G	.	.
=92	=92	=92	=92
0r	4A	1e	2r
.	4B-y	.	.
.	2c	.	2g
.	4G	2r	1b-y
.	4A	.	.
.	4B-y	2d	.
.	4c	.	.
=93	=93	=93	=93
0r	1d	1f	1a
.	2r	1e	2g
.	2G	.	[2b-y
=94	=94	=94	=94
1r	1B-y	2d	4b-]
.	.	.	4cc
.	.	2.f	2.dd
2r	1A	.	.
.	.	4e	4cc
2FF	.	4d	[2cc
.	.	4c	.
=95	=95	=95	=95
1B-y	1G	2d	2cc]
.	.	2d	2b-y
1A	2r	1c	1cc
.	2F	.	.
=96	=96	=96	=96
2G	1B-y	0r	0r
2D	.	.	.
1F	1A	.	.
=97	=97	=97	=97
1E	4G	2r	0r
.	4A	.	.
.	4B-y	2G	.
.	4c	.	.
2D	2d	1B-y	.
[2G	[2e	.	.
=98	=98	=98	=98
2G]	4e]	1A	1r
.	4d	.	.
2F	1d	.	.
2E	.	1G	2r
2C	[2c	.	2c
=99	=99	=99	=99
1D	2c]	2r	1f
.	2BnXi	2F	.
1C	1c	4G	1e
.	.	4F	.
.	.	4G	.
.	.	4A	.
=100	=100	=100	=100
4GG	2r	4B-y	2.d
4AA	.	4c	.
4BB-y	2B-y	1d	.
4C	.	.	4e
4D	4A	.	4f
4E	4G	.	4g
[2F	4F	[2c	[2a
.	4G	.	.
=101	=101	=101	=101
2F]	4A	4c]	2a]
.	4B-y	4d	.
2C	4c	2e	1g
.	4A	.	.
1D	4B-y	2d	.
.	4A	.	.
.	4G	2B-y	[2f
.	4F	.	.
=102	=102	=102	=102
1C	1G	1c	2f]
.	.	.	2e
1FF	1F	1A	1f
=103	=103	=103	=103
1r	1r	1r	1r
[1BB-y	[1F	[1B-y	[1d
=104	=104	=104	=104
1BB-]	1F]	1B-]	1d]
[1BB-y	[1F	[1B-y	[1d
=105	=105	=105	=105
1BB-]	1F]	1B-]	1d]
[1FF	[1A	[1c	[1f
=106	=106	=106	=106
2FF]	2A]	2c]	2f]
2FF	2A	2c	2f
1C	1G	1c	1e
=107	=107	=107	=107
1D	1F	1A	1d
[1C	[1G	1c	[1e
=108	=108	=108	=108
1C]	2G]	1.c	1e]
.	2.A	.	.
[1D	.	.	[1f
.	4G	.	.
.	4F	4B-y	.
.	4E	4A	.
=109	=109	=109	=109
1D]	2.F	1B-y	1f]
.	4G	.	.
[1AA	1A	[1c	[1e
=110	=110	=110	=110
1AA]	2r	1c]	1e]
.	1A	.	.
2r	.	2r	2r
[2AA	2A	[2c	[2e
=111	=111	=111	=111
2AA]	0A	2c]	2e]
2AA	.	2c	2e
1AA	.	1c	1e
=112	=112	=112	=112
0BB-y	0F	0B-y	0d
=113	=113	=113	=113
0FF	[0F	0A	1c
.	.	.	2r
.	.	.	[2cc
=114	=114	=114	=114
0r	0F]	2r	2cc]
.	.	1f	2cc
.	.	.	1cc
.	.	2f	.
=115	=115	=115	=115
0r	0r	1f	2r
.	.	.	2a
.	.	2r	[1cc
.	.	2c	.
=116	=116	=116	=116
0r	0r	1.f	2cc]
.	.	.	2b-y
.	.	.	2a
.	.	2e	2g
=117	=117	=117	=117
0r	0r	2d	2b-y
.	.	2d	1a
.	.	[1c	.
.	.	.	4g
.	.	.	4f
=118	=118	=118	=118
0r	0r	2c]	4e
.	.	.	4d
.	.	2A	4e
.	.	.	4f
.	.	2B-y	4g
.	.	.	4e
.	.	2c	2a
=119	=119	=119	=119
0r	0r	4B-y	2g
.	.	4A	.
.	.	4G	1f
.	.	4F	.
.	.	1G	.
.	.	.	2e
=120	=120	=120	=120
1r	2r	0F	0f
.	1c	.	.
2r	.	.	.
[2F	2c	.	.
=121	=121	=121	=121
2F]	1c	0r	0r
2F	.	.	.
1F	2r	.	.
.	2A	.	.
=122	=122	=122	=122
2r	1.c	0r	0r
2C	.	.	.
[1F	.	.	.
.	2B-y	.	.
=123	=123	=123	=123
2F]	2A	0r	0r
2E	2G	.	.
2D	2B-y	.	.
2D	[2A	.	.
=124	=124	=124	=124
1.C	2A]	0r	0r
.	4G	.	.
.	4F	.	.
.	4E	.	.
.	4D	.	.
2AA	4E	.	.
.	4F	.	.
=125	=125	=125	=125
2BB-y	2G	0r	0r
2C	2A	.	.
4BB-y	2G	.	.
4AA	.	.	.
4GG	[2F	.	.
4FF	.	.	.
=126	=126	=126	=126
1GG	2F]	0r	0r
.	2E	.	.
1FF	1F	.	.
=127	=127	=127	=127
3%4FF	3%4F	0r	0r
3%2r	3%2r	.	.
=128	=128	=128	=128
3%4F	3%4c	3%4f	3%4a
3%2F	3%2c	3%2f	3%2a
=129	=129	=129	=129
3%4BB-y	3%4d	3%4f	3%4b-y
3%2C	3c	3%2e	3%2g
.	3B-y	.	.
=130	=130	=130	=130
3%4D	3%2.A	3%4d	3%2.f
.	3B-y	.	3g
3%2C	3%2c	3%2e	3%2a
=131	=131	=131	=131
3%4BB-y	3%4d	3%4f	3%4b-y
[3%2F	3%2c	[3%2f	3%2a
=132	=132	=132	=132
3%2F]	3%2A	3%2f]	3%4a
3%4G	3%4B-y	3%2.d	.
.	.	.	3%2g
.	.	3e	.
=133	=133	=133	=133
3%2.F	3%2.A	3%4f	3%4a
3G	3B-y	.	.
3%2A	3%2c	3e	3%2a
.	.	3c	.
=134	=134	=134	=134
3%2B-y	3%2d	3%4f	3%2f
3%4G	3%4B-y	.	3%4b-y
.	.	3%2e	.
=135	=135	=135	=135
3%4F	3%4c	3%4f	3%4a
3%2r	3%2r	3%2r	3%2r
=136	=136	=136	=136
3%4BB-y	3%4d	3%4f	3%4b-y
3%2BB-y	3%2d	3%2f	3%2b-y
=137	=137	=137	=137
3%2F	3%2.c	3%2f	3%2a
3%2C	.	3%2e	3%2.g
.	3B-y	.	.
3%2D	3%2A	3%2d	.
.	.	.	3f
=138	=138	=138	=138
3%2BB-y	3%2B-y	3%2d	3%4f
3%4C	3%4G	3%4c	.
.	.	.	3%2e
=139	=139	=139	=139
[0FFl	[0Fl	[0cl	[0fl
=140	=140	=140	=140
0FF]	0F]	0c]	0f]
==	==	==	==
*-	*-	*-	*-
!!!system-decoration: [*]
!!!RDF**kern: i = editorial accidental
!!!RDF**kern: l = terminal long
!!!ENC: Janosch Umbreit
!!!END: 2025/10/11
!!!EED: Benjamin Ory
!!!EEV: 2025/10/16
!!!YEC: Copyright 2025 Benjamin Ory, All Rights Reserved
!!!ONB: Translated from MusicXML on 2025/10/16